themes/smi/static/img/deislabs.svg

<svg height="14" viewBox="0 0 70 14" width="70" xmlns="http://www.w3.org/2000/svg"><path d="m1 84.4375h3.64885496c3.45038168 0 6.35114504 2.7363636 6.35114504 6.5545455 0 3.8340909-2.88549618 6.5704545-6.35114504 6.5704545h-3.64885496zm2.91666667 10.5h.45770202c2.19381313 0 3.69318182-1.7070552 3.70896464-3.9294479 0-2.2223926-1.49936868-3.9455521-3.70896464-3.9455521h-.45770202zm16.23503893-.9177026h-5.5655297c0 1.2730203.9874327 1.7081032 1.6606823 1.7081032.8527827 0 1.2268103-.177256 1.8701376-.9185083l1.915021 1.0313075c-.8677439 1.5630755-2.2740874 2.1593002-3.9796529 2.1593002-2.3189707 0-4.2190306-1.96593-4.2190306-4.3669429 0-2.4171271 1.9000599-4.3830571 4.2190306-4.3830571 2.3339317 0 4.1143028 1.4825046 4.1143028 4.3830571 0 .1127993 0 .2900552-.0149611.3867403zm-5.8183723-1.7072974h2.9166667c-.1196581-.8539157-.6730769-1.3125-1.4508547-1.3125-.9123932 0-1.4209402.5692771-1.465812 1.3125zm8.3333334-7.875c.9206349 0 1.6666666.7833333 1.6666666 1.75s-.7460317 1.75-1.6666666 1.75c-.920635 0-1.6666667-.7833333-1.6666667-1.75s.7460317-1.75 1.6666667-1.75zm-1.25 5.25h2.5v8.3125h-2.5zm8.0971277-.4375c1.4965986 0 2.6001512.6445672 2.6001512.6445672l-.8767952 1.869245s-.9070295-.5156538-1.723356-.5156538c-.5895692 0-.8314437.1127992-.8314437.4995396 0 .4350828.5442177.5639963 1.2093727.7895948 1.0279667.3383978 2.3582766.9507367 2.3582766 2.6427256 0 2.4332413-2.0861678 2.8199816-3.6734694 2.8199816-1.8745276 0-2.9931973-1.1118785-2.9931973-1.1118785l1.0884354-1.9498158s1.0582011.9507367 1.9198791.9507367c.3779289 0 .8314437-.0483426.8314437-.5962247 0-.5962247-.8465609-.6445672-1.7233561-1.1279927-.7860922-.4350828-1.5721844-1.0151933-1.5721844-2.2559852 0-1.691989 1.3454271-2.6588398 3.3862434-2.6588398zm8.8908666-4.8125v10.5h4.2620057v2.625h-7.0833334v-13.125zm5.095339 9.1955571c0-2.4171271 1.6041667-4.3830571 3.8958333-4.3830571 1.0541667 0 1.925.3706262 2.5666667 1.0313076v-.7895949h2.7041667v8.2665746h-2.6736111v-.9346225h-.0305556c-.5805556.6767956-1.4972222 1.1763352-2.5666667 1.1763352-2.2916666 0-3.8958333-1.9498158-3.8958333-4.3669429zm2.9166667.218862c0 1.1436722.753138 1.9605809 1.8828452 1.9605809 1.0826359 0 1.8671548-.8169087 1.8671548-1.9605809 0-1.1600104-.83159-1.9769191-1.8671548-1.9769191-1.0512553 0-1.8828452.8169087-1.8828452 1.9769191zm17.5-.1879191c0 2.4-1.6041667 4.336-3.8958334 4.336-1.0694444 0-1.9861111-.496-2.5666666-1.168h-.0305556v.928h-2.6736111v-13.76h2.7041667v6.336c.6416666-.656 1.5125-1.024 2.5666666-1.024 2.2916667 0 3.8958334 1.952 3.8958334 4.352zm-2.9166667.1879191c0-1.1600104-.83159-1.9769191-1.8828452-1.9769191-1.0355648 0-1.8671548.8169087-1.8671548 1.9769191 0 1.1436722.7845188 1.9605809 1.8671548 1.9605809 1.1297071 0 1.8828452-.8169087 1.8828452-1.9605809zm7.2637944-4.6019191c1.4965986 0 2.6001512.6445672 2.6001512.6445672l-.8767952 1.869245s-.9070295-.5156538-1.723356-.5156538c-.5895692 0-.8314437.1127992-.8314437.4995396 0 .4350828.5442177.5639963 1.2093727.7895948 1.0279667.3383978 2.3582766.9507367 2.3582766 2.6427256 0 2.4332413-2.0861678 2.8199816-3.6734694 2.8199816-1.8745276 0-2.9931973-1.1118785-2.9931973-1.1118785l1.0884354-1.9498158s1.0582011.9507367 1.9198791.9507367c.3779289 0 .8314437-.0483426.8314437-.5962247 0-.5962247-.8465609-.6445672-1.7233561-1.1279927-.7860922-.4350828-1.5721844-1.0151933-1.5721844-2.2559852 0-1.691989 1.3454271-2.6588398 3.3862434-2.6588398z" fill-rule="evenodd" transform="translate(-1 -84)"/></svg>

<?xml version="1.0" encoding="UTF-8"?>
<svg width="70px" height="14px" viewBox="0 0 70 14" version="1.1" xmlns="http://www.w3.org/2000/svg" xmlns:xlink="http://www.w3.org/1999/xlink">
    <!-- Generator: Sketch 51.3 (57544) - http://www.bohemiancoding.com/sketch -->
    <title>Deis Labs</title>
    <desc>Created with Sketch.</desc>
    <defs></defs>
    <g id="Page-1" stroke="none" stroke-width="1" fill="none" fill-rule="evenodd">
        <g id="Website" transform="translate(-83.000000, -2487.000000)" fill="#000000">
            <g id="Footer" transform="translate(-355.000000, 2403.000000)">
                <g id="Deis-Labs" transform="translate(437.000000, 0.000000)">
                    <path d="M1,84.4375 L4.64885496,84.4375 C8.09923664,84.4375 11,87.1738636 11,90.9920455 C11,94.8261364 8.11450382,97.5625 4.64885496,97.5625 L1,97.5625 L1,84.4375 Z M3.91666667,94.9375 L4.37436869,94.9375 C6.56818182,94.9375 8.06755051,93.2304448 8.08333333,91.0080521 C8.08333333,88.7856595 6.58396465,87.0625 4.37436869,87.0625 L3.91666667,87.0625 L3.91666667,94.9375 Z M20.1517056,94.0197974 L14.5861759,94.0197974 C14.5861759,95.2928177 15.5736086,95.7279006 16.2468582,95.7279006 C17.0996409,95.7279006 17.4736685,95.5506446 18.1169958,94.8093923 L20.0320168,95.8406998 C19.1642729,97.4037753 17.7579294,98 16.0523639,98 C13.7333932,98 11.8333333,96.03407 11.8333333,93.6330571 C11.8333333,91.21593 13.7333932,89.25 16.0523639,89.25 C18.3862956,89.25 20.1666667,90.7325046 20.1666667,93.6330571 C20.1666667,93.7458564 20.1666667,93.9231123 20.1517056,94.0197974 Z M14.3333333,92.3125 L17.25,92.3125 C17.1303419,91.4585843 16.5769231,91 15.7991453,91 C14.8867521,91 14.3782051,91.5692771 14.3333333,92.3125 Z M22.6666667,84.4375 C23.5873016,84.4375 24.3333333,85.2208333 24.3333333,86.1875 C24.3333333,87.1541667 23.5873016,87.9375 22.6666667,87.9375 C21.7460317,87.9375 21,87.1541667 21,86.1875 C21,85.2208333 21.7460317,84.4375 22.6666667,84.4375 Z M21.4166667,89.6875 L23.9166667,89.6875 L23.9166667,98 L21.4166667,98 L21.4166667,89.6875 Z M29.5137944,89.25 C31.010393,89.25 32.1139456,89.8945672 32.1139456,89.8945672 L31.2371504,91.7638122 C31.2371504,91.7638122 30.3301209,91.2481584 29.5137944,91.2481584 C28.9242252,91.2481584 28.6823507,91.3609576 28.6823507,91.747698 C28.6823507,92.1827808 29.2265684,92.3116943 29.8917234,92.5372928 C30.9196901,92.8756906 32.25,93.4880295 32.25,95.1800184 C32.25,97.6132597 30.1638322,98 28.5765306,98 C26.702003,98 25.5833333,96.8881215 25.5833333,96.8881215 L26.6717687,94.9383057 C26.6717687,94.9383057 27.7299698,95.8890424 28.5916478,95.8890424 C28.9695767,95.8890424 29.4230915,95.8406998 29.4230915,95.2928177 C29.4230915,94.696593 28.5765306,94.6482505 27.6997354,94.164825 C26.9136432,93.7297422 26.127551,93.1496317 26.127551,91.9088398 C26.127551,90.2168508 27.4729781,89.25 29.5137944,89.25 Z M38.404661,84.4375 L38.404661,94.9375 L42.6666667,94.9375 L42.6666667,97.5625 L35.5833333,97.5625 L35.5833333,84.4375 L38.404661,84.4375 Z M43.5,93.6330571 C43.5,91.21593 45.1041667,89.25 47.3958333,89.25 C48.45,89.25 49.3208333,89.6206262 49.9625,90.2813076 L49.9625,89.4917127 L52.6666667,89.4917127 L52.6666667,97.7582873 L49.9930556,97.7582873 L49.9930556,96.8236648 L49.9625,96.8236648 C49.3819444,97.5004604 48.4652778,98 47.3958333,98 C45.1041667,98 43.5,96.0501842 43.5,93.6330571 Z M46.4166667,93.8519191 C46.4166667,94.9955913 47.1698047,95.8125 48.2995119,95.8125 C49.3821478,95.8125 50.1666667,94.9955913 50.1666667,93.8519191 C50.1666667,92.6919087 49.3350767,91.875 48.2995119,91.875 C47.2482566,91.875 46.4166667,92.6919087 46.4166667,93.8519191 Z M63.9166667,93.664 C63.9166667,96.064 62.3125,98 60.0208333,98 C58.9513889,98 58.0347222,97.504 57.4541667,96.832 L57.4236111,96.832 L57.4236111,97.76 L54.75,97.76 L54.75,84 L57.4541667,84 L57.4541667,90.336 C58.0958333,89.68 58.9666667,89.312 60.0208333,89.312 C62.3125,89.312 63.9166667,91.264 63.9166667,93.664 Z M61,93.8519191 C61,92.6919087 60.16841,91.875 59.1171548,91.875 C58.08159,91.875 57.25,92.6919087 57.25,93.8519191 C57.25,94.9955913 58.0345188,95.8125 59.1171548,95.8125 C60.2468619,95.8125 61,94.9955913 61,93.8519191 Z M68.2637944,89.25 C69.760393,89.25 70.8639456,89.8945672 70.8639456,89.8945672 L69.9871504,91.7638122 C69.9871504,91.7638122 69.0801209,91.2481584 68.2637944,91.2481584 C67.6742252,91.2481584 67.4323507,91.3609576 67.4323507,91.747698 C67.4323507,92.1827808 67.9765684,92.3116943 68.6417234,92.5372928 C69.6696901,92.8756906 71,93.4880295 71,95.1800184 C71,97.6132597 68.9138322,98 67.3265306,98 C65.452003,98 64.3333333,96.8881215 64.3333333,96.8881215 L65.4217687,94.9383057 C65.4217687,94.9383057 66.4799698,95.8890424 67.3416478,95.8890424 C67.7195767,95.8890424 68.1730915,95.8406998 68.1730915,95.2928177 C68.1730915,94.696593 67.3265306,94.6482505 66.4497354,94.164825 C65.6636432,93.7297422 64.877551,93.1496317 64.877551,91.9088398 C64.877551,90.2168508 66.2229781,89.25 68.2637944,89.25 Z"></path>
                </g>
            </g>
        </g>
    </g>
</svg>
